packages/webapp/public/images/template-logos/battlenet.svg

<svg width="62" height="62" viewBox="0 0 62 62" fill="none" xmlns="http://www.w3.org/2000/svg">
<rect width="62" height="62" rx="10" fill="white"/>
<path d="M47.6248 28.3912C47.6248 28.3912 51.2465 28.5753 51.2465 26.4453C51.2465 23.6646 46.4217 21.1602 46.4217 21.1602C46.4217 21.1602 47.1767 19.558 47.6494 18.6618C48.122 17.7656 49.4479 14.279 49.5646 13.481C49.7119 12.4743 49.4848 12.1613 49.4848 12.1613C49.1594 14.3097 45.6605 20.4972 45.3782 20.7059C41.9652 19.1099 37.2755 18.6618 37.2755 18.6618C37.2755 18.6618 32.684 9 28.3625 9C24.0779 9 24.1025 17.2746 24.1025 17.2746C24.1025 17.2746 22.8932 14.9297 21.3709 14.9297C19.1488 14.9297 18.4184 18.2813 18.4184 21.9213C14.0355 21.9213 10.3464 22.9035 10.0149 22.9955C9.68956 23.0876 8.65217 23.8426 9.11869 23.7506C10.0824 23.4436 14.588 22.7439 18.5288 23.0876C18.7498 26.5435 20.7694 31.0491 20.7694 31.0491C20.7694 31.0491 16.4357 37.3225 16.4357 41.7974C16.4357 42.976 16.9513 45.1306 20.0573 45.1306C22.6661 45.1306 25.5941 43.5653 26.1404 43.2522C25.6617 43.9336 25.3056 45.2411 25.3056 45.8426C25.3056 46.3337 25.6003 47.7271 27.6075 47.7271C30.1856 47.7271 33.0707 45.7506 33.0707 45.7506C33.0707 45.7506 35.7961 50.2684 38.1226 52.3371C38.7487 52.8956 39.3503 53 39.3503 53C39.3503 53 37.0361 50.7779 33.9915 45.0446C36.8213 43.3013 39.7677 39.1763 39.7677 39.1763C39.7677 39.1763 40.1176 39.1886 42.8062 39.1886C47.0171 39.1886 52.9959 38.3047 52.9959 34.9593C53.0021 31.5095 47.6248 28.3912 47.6248 28.3912ZM48.0913 26.3103C48.0913 27.5318 46.9312 27.5195 46.9312 27.5195L46.0473 27.5748C46.0473 27.5748 44.3715 26.697 43.3525 26.2796C43.3525 26.2796 44.9301 23.8549 45.2984 23.1797C45.5746 23.3454 48.0913 24.9169 48.0913 26.3103ZM30.468 13.8677C32.4507 13.8677 35.2744 18.5329 35.2744 18.5329C35.2744 18.5329 30.867 18.1401 27.2392 20.2701C27.3374 16.9124 28.4669 13.8677 30.468 13.8677ZM22.6293 17.649C23.2554 17.649 23.8692 18.4163 24.1271 19.0608C24.1271 19.4905 24.348 21.995 24.348 21.995L20.7141 21.8538C20.7141 18.582 21.997 17.649 22.6293 17.649ZM22.2487 40.3917C20.2599 40.3917 19.8547 39.2868 19.8547 38.2924C19.8547 36.0396 21.6533 32.8845 21.6533 32.8845C21.6533 32.8845 23.6728 37.1261 27.1901 38.9124C25.4468 39.9375 24.0043 40.3917 22.2487 40.3917ZM28.7002 44.8298C27.3067 44.8298 27.1349 43.9275 27.1349 43.7187C27.1349 43.0742 27.6444 42.3069 27.6444 42.3069C27.6444 42.3069 29.9831 40.7294 30.1304 40.5575L31.8614 43.7863C31.8614 43.7863 30.0936 44.8298 28.7002 44.8298ZM33.0461 43.0742C32.199 41.5949 31.5729 40.048 31.5729 40.048C31.5729 40.048 35.0534 40.269 36.9256 38.3415C35.7593 38.8633 33.8994 39.5262 31.7387 39.3237C36.2565 35.346 38.896 32.4609 41.1243 29.4838C40.934 29.2506 39.915 28.5385 39.6633 28.4219C38.319 30.0424 33.083 35.6345 28.2336 38.4029C22.0952 35.0575 20.8062 25.2176 20.6773 23.1735L24.0288 23.4927C24.0288 23.4927 22.7705 25.7271 22.7705 27.3722C22.7705 29.0112 22.9669 29.0971 22.9669 29.0971C22.9669 29.0971 22.9239 26.2366 24.6918 24.0268C26.0422 31.1964 27.4479 34.8672 28.5406 37.0586C29.0992 36.8253 30.1365 36.365 30.1365 36.365C30.1365 36.365 27.0428 27.4459 27.2147 21.4118C28.6204 20.6629 30.7013 19.8895 33.0461 19.8895C39.2214 19.8895 44.1873 22.5413 44.1873 22.5413L42.2476 25.2545C42.2476 25.2545 40.5166 22.1239 38.0673 21.5653C39.3564 22.5229 40.8051 23.7935 41.554 25.6166C36.4345 23.6217 30.2593 22.5658 28.2766 22.3326C28.1047 23.0631 28.1293 24.1066 28.1293 24.1066C28.1293 24.1066 36.41 25.635 42.4379 29.0787C42.3949 36.6166 34.1817 42.4051 33.0461 43.0742ZM40.891 37.4392C40.891 37.4392 43.463 34.0692 43.42 29.6004C43.42 29.6004 47.5757 32.1724 47.5757 34.683C47.5757 37.4821 40.891 37.4392 40.891 37.4392Z" fill="black"/>
</svg>

<svg xmlns="http://www.w3.org/2000/svg" width="62" height="62" fill="none"><rect width="62" height="62" rx="31" fill="#fff"/><path d="M47.625 28.391s3.622.184 3.622-1.946c0-2.781-4.825-5.285-4.825-5.285l1.228-2.498c.473-.896 1.798-4.383 1.915-5.181.147-1.007-.08-1.32-.08-1.32-.325 2.148-3.824 8.336-4.106 8.545-3.413-1.596-8.103-2.044-8.103-2.044S32.684 9 28.363 9c-4.285 0-4.26 8.275-4.26 8.275s-1.209-2.345-2.732-2.345c-2.222 0-2.953 3.351-2.953 6.992-4.383 0-8.072.982-8.403 1.074-.325.092-1.363.847-.896.755.964-.307 5.469-1.007 9.41-.663.221 3.456 2.241 7.962 2.241 7.962s-4.334 6.273-4.334 10.748c0 1.179.516 3.333 3.622 3.333 2.609 0 5.537-1.565 6.083-1.878-.479.681-.835 1.989-.835 2.59 0 .491.295 1.885 2.302 1.885 2.578 0 5.463-1.977 5.463-1.977s2.725 4.518 5.052 6.587c.626.559 1.228.663 1.228.663s-2.314-2.222-5.359-7.955c2.83-1.743 5.776-5.868 5.776-5.868s.35.012 3.038.012c4.211 0 10.19-.884 10.19-4.229.006-3.45-5.371-6.568-5.371-6.568zm.466-2.081c0 1.221-1.16 1.209-1.16 1.209l-.884.055s-1.676-.878-2.695-1.295c0 0 1.578-2.425 1.946-3.1.276.166 2.793 1.737 2.793 3.131zM30.468 13.868c1.983 0 4.806 4.665 4.806 4.665s-4.407-.393-8.035 1.737c.098-3.358 1.228-6.402 3.229-6.402zm-7.839 3.781c.626 0 1.24.767 1.498 1.412 0 .43.221 2.934.221 2.934l-3.634-.141c0-3.272 1.283-4.205 1.915-4.205zm-.381 22.743c-1.989 0-2.394-1.105-2.394-2.099 0-2.253 1.799-5.408 1.799-5.408s2.019 4.242 5.537 6.028c-1.743 1.025-3.186 1.479-4.941 1.479zM28.7 44.83c-1.393 0-1.565-.902-1.565-1.111 0-.645.509-1.412.509-1.412s2.339-1.578 2.486-1.749l1.731 3.229S30.094 44.83 28.7 44.83zm4.346-1.756c-.847-1.479-1.473-3.026-1.473-3.026s3.481.221 5.353-1.706c-1.166.522-3.026 1.185-5.187.982 4.518-3.978 7.157-6.863 9.386-9.84-.19-.233-1.209-.945-1.461-1.062-1.344 1.62-6.58 7.213-11.43 9.981-6.138-3.345-7.427-13.185-7.556-15.229l3.352.319s-1.258 2.234-1.258 3.88c0 1.639.196 1.725.196 1.725s-.043-2.861 1.725-5.07c1.35 7.17 2.756 10.84 3.849 13.032l1.596-.694s-3.094-8.919-2.922-14.953c1.406-.749 3.487-1.522 5.831-1.522 6.175 0 11.141 2.652 11.141 2.652l-1.94 2.713s-1.731-3.131-4.18-3.689c1.289.958 2.738 2.228 3.487 4.051-5.119-1.995-11.295-3.051-13.277-3.284-.172.73-.147 1.774-.147 1.774s8.281 1.528 14.309 4.972c-.043 7.538-8.256 13.326-9.392 13.995zm7.845-5.635s2.572-3.37 2.529-7.839c0 0 4.156 2.572 4.156 5.083 0 2.799-6.685 2.756-6.685 2.756z" fill="#000"/></svg>
